X: 28388
T: Muiñeria De Freixido
R: jig
M: 6/8
K: Bminor
||DE/F|FE/F FE/D|A2F DE/F|FE/F GA/B|A2F DE/F|
FE/F FE/D|A2 F DEF|FE/F EC/E|D3 DE/F|
FEF FED|A2F DE/F|FE/F GA/B|A2F DE/F|
FE/F FE/D|A2 F DEF|FE/F EC/E|D2 A AG/F|
E2 BBA/G|F2 d dc/B|cB/A GF/E|D2 A AG/F|
E2 B BA/G|F2 d dc/B|cB/A GF/E|D2 A AG/F|
E2 BBA/G|F2 d dc/B|cB/A GF/E|D2 A AG/F|
E2 B BA/G|F2 d dc/B|cB/A GF/E|D3 AB/c||
d3 dc/B|c3 cB/A|B3 BA/G|A3 AB/c|d3dcB|
c3 cB/A|B3 BA/G|A2 F DE/F|G2 B BA/G|
A2 F DE/F|G2 B BAG|A2 AG/F|E2 A AF/E||D3 DE/F|
G2 B BA/G|A2 F DE/F|G2 B BAG|A3 AG/F|E2 A AF/E2|D||

